outputs/icons/file/grid_view_sharp.svg

<svg xmlns="http://www.w3.org/2000/svg" width="1200" height="1200" fill="none"><g fill="#000" clip-path="url(#a)"><path d="M150 150h400v400H150zM150 650h400v400H150zM1050 150H650v400h400zM650 650h400v400H650z"/></g><defs><clipPath id="a"><path fill="#fff" d="M0 0h1200v1200H0z"/></clipPath></defs></svg>

<svg width="1200" height="1200" viewBox="0 0 1200 1200" fill="none" xmlns="http://www.w3.org/2000/svg"><g clip-path="url(#clip0_124_953)"><path d="M150 150H550V550H150V150Z" fill="black"/><path d="M150 650H550V1050H150V650Z" fill="black"/><path d="M1050 150H650V550H1050V150Z" fill="black"/><path d="M650 650H1050V1050H650V650Z" fill="black"/></g><defs><clipPath id="clip0_124_953"><path width="24" fill="white" d="M0 0H1200V1200H0V0z"/></clipPath></defs></svg>
